X: 114
T: Bulgar 9
O: collected by G.Goldenshteyn
M: 4/4
L: 1/8
S: printed MS of unknown origin
Z: 2008 John Chambers <jc:trillian.mit.edu>
Q: 1/4=146
K: Am
|:e ^de \
| fe dc "E"B4- | B4 zd ^cd \
| ed cB "Am"c4- | c4 zA ce \
| a^g =g=f =fe^dc 
| "Cdim"_e4 "Dm"d3 c \
| Bc (3e^dc (3edc (3cBA | "Am"e4 zA ce \
| a^g =g=f =fe^dc 
| "Cdim"_e4 "Dm"d3 c \
| Bc (3e^dc (3edc (3cBA | "Am"A4 z :|\
|: e ^de \
| "Dm"f3 d B3 f | "Am"e3 c A4 
| "E"Bc (3e^dc (3edc (3cBA | "Am"e4 ze ^de \
| "Dm"f3 d B2 zf | "Am"a4- a4 \
| gz fz ez dz 
|[1 cB e^G "Am"A :|[2 cBe^G "Am" A z3 \
|: "C"(3cBc (3e^de (3g^fg c'2 | (3c'ba (3gfe dc e2 \
|1 "G"^fg (3_bag (3bag (3fed | "C"g4 fe g2 
:|2 "E"Bc (3e^dc (3edc (3cBA | "Am"A4- A4 | z \
|: ^fga \
| _ba g^f _ed cB | e4- e4 
| Bc (3e^dc (3edc (3cBA |1 "Am"e4 z :|2 A4 z |] 



